picto/emergency-window-right.svg

<svg class="color-immutable" width="24" height="24" viewBox="0 0 24 24" fill="none" xmlns="http://www.w3.org/2000/svg"><path d="M0 22.5V1.5C0 0.675 0.675 0 1.5 0H22.5C23.325 0 24 0.675 24 1.5V22.5C24 23.325 23.325 24 22.5 24H1.5C0.675 24 0 23.325 0 22.5Z" fill="#237F52"/><path d="M18.8989 6C19.6449 6 20.2499 6.604 20.2499 7.35C20.2499 8.095 19.6449 8.7 18.8989 8.7C18.1549 8.7 17.5499 8.095 17.5499 7.35C17.5499 6.604 18.1549 6 18.8989 6ZM9.37195 15L15.2429 9.128H13.8709L11.9439 11.056C11.8519 11.147 11.7289 11.197 11.5999 11.197C11.3319 11.197 11.1149 10.979 11.1149 10.713C11.1149 10.583 11.1659 10.46 11.2569 10.37L13.2999 8.327C13.4289 8.197 13.6059 8.123 13.7899 8.123H16.2099C17.1679 8.123 17.9429 8.899 17.9429 9.855V12.279H19.9159C20.2039 12.279 20.4359 12.511 20.4359 12.798C20.4359 13.086 20.2039 13.318 19.9159 13.318H17.4579C17.1709 13.318 16.9379 13.086 16.9379 12.798V10.859L14.6609 13.138L16.7359 15.213C16.8669 15.345 16.9379 15.519 16.9379 15.704V19.897C16.9379 20.279 16.6289 20.59 16.2459 20.59C15.8639 20.59 15.5529 20.279 15.5529 19.897V16.09L12.9449 13.484L11.4299 15H9.37195Z" fill="white"/><path d="M16.5 14.447L15.375 13.323V12.956L16.5 11.831V14.447Z" fill="white"/><path d="M16.5 3V7.77C16.406 7.757 16.309 7.75 16.211 7.75H15.375V4.125H4.125V15.375H14.309L15.18 16.245V16.5H3V3H16.5Z" fill="white"/></svg>

<svg class="color-immutable" width="24" height="24" viewBox="0 0 24 24" fill="none" xmlns="http://www.w3.org/2000/svg"><g clip-path="url(#a)"><path d="M0 22.5v-21C0 .675.675 0 1.5 0h21c.825 0 1.5.675 1.5 1.5v21c0 .825-.675 1.5-1.5 1.5h-21C.675 24 0 23.325 0 22.5Z" fill="#237F52"/><path d="M18.899 6a1.35 1.35 0 1 1 .001 2.7A1.35 1.35 0 0 1 18.9 6Zm-9.527 9 5.87-5.872h-1.371l-1.927 1.928a.487.487 0 0 1-.83-.343.48.48 0 0 1 .143-.343L13.3 8.327a.692.692 0 0 1 .49-.204h2.42c.958 0 1.733.776 1.733 1.732v2.424h1.973a.519.519 0 1 1 0 1.039h-2.458a.52.52 0 0 1-.52-.52v-1.939l-2.277 2.279 2.075 2.075a.691.691 0 0 1 .202.491v4.193a.692.692 0 1 1-1.385 0V16.09l-2.608-2.606L11.43 15H9.372Z" fill="#fff"/><path d="m16.5 14.447-1.125-1.124v-.367l1.125-1.125v2.616Z" fill="#fff"/><path d="M16.5 3v4.77a2.114 2.114 0 0 0-.289-.02h-.836V4.125H4.125v11.25h10.184l.871.87v.255H3V3h13.5Z" fill="#fff"/></g><defs><clipPath id="a"><path fill="#fff" d="M0 0h24v24H0z"/></clipPath></defs></svg>
